X: 2289
M: 9/8
L: 1/8
K: F	% and/or G dorian
ud2 !segno!|:\
cAG G2G G2d | cAG GAd fed |\
cAG G2G G2A | FAc x3 "^1st"cAd & x3 fed "_2nd"cAF |:\
[1 d2e fge f2A | Afe fed cAF :|\
[2 bag bag bag | fge f2d fed |]


